X:19
T:Forty-Two Pound Cheque
Z: id:dc-polka-43
M:2/4
L:1/8
K:D Major
d/B/|Ad Bd/B/|AD FA|GE BE|A>G FD|!
Ad Bd/B/|AD FA|[1 GE e>f|ed d:|[2 GE A>G|FD D|]!
d/B/|Ad fe/f/|g>f ed|cA eA|eA cA|!
Ad fe/f/|g>f ed|cA Bc|d2 d:|!

